build/images/chevron-right.svg

<?xml version="1.0" encoding="UTF-8"?>
<svg width="10px" height="20px" viewBox="0 0 10 20" version="1.1" xmlns="http://www.w3.org/2000/svg" xmlns:xlink="http://www.w3.org/1999/xlink">
    <!-- Generator: sketchtool 63.1 (101010) - https://sketch.com -->
    <title>7B1A5B85-5D6B-44BD-9781-4F89B980265B</title>
    <desc>Created with sketchtool.</desc>
    <g id="Page-1" stroke="none" stroke-width="1" fill="none" fill-rule="evenodd">
        <g id="Kupa-shop---catalogue" transform="translate(-605.000000, -1182.000000)" fill="#D8D8D8" fill-rule="nonzero">
            <g id="chevron-right" transform="translate(610.000000, 1192.000000) rotate(-90.000000) translate(-610.000000, -1192.000000) translate(600.000000, 1187.000000)">
                <path d="M19.7175439,0.237122302 C19.3923587,-0.0629136691 18.8667057,-0.0629136691 18.5415205,0.237122302 L9.98070175,8.13582734 L1.41992203,0.237122302 C1.09473684,-0.0629136691 0.569083821,-0.0629136691 0.243898635,0.237122302 C-0.0812865497,0.537158273 -0.0812865497,1.02215827 0.243898635,1.32219424 L9.39270955,9.76345324 C9.55489279,9.91309353 9.76779727,9.98830935 9.98074074,9.98830935 C10.1936842,9.98830935 10.4065887,9.91309353 10.5687719,9.76345324 L19.7175828,1.32219424 C20.042729,1.02215827 20.042729,0.537158273 19.7175439,0.237122302 Z" id="Path"></path>
            </g>
        </g>
    </g>
</svg>

<svg width="10" height="20" xmlns="http://www.w3.org/2000/svg"><g id="Page-1" stroke="none" stroke-width="1" fill="none" fill-rule="evenodd"><g id="Kupa-shop---catalogue" transform="translate(-605 -1182)" fill="#D8D8D8" fill-rule="nonzero"><g id="chevron-right" transform="rotate(-90 903.5 298.5)"><path d="M19.718.237a.88.88 0 00-1.176 0L9.98 8.136 1.42.237a.88.88 0 00-1.176 0 .725.725 0 000 1.085l9.149 8.441c.162.15.375.225.588.225a.866.866 0 00.588-.225l9.149-8.44a.725.725 0 000-1.086z" id="Path"/></g></g></g></svg>
